X:1
T:The Lowly Child
T:The Lowly Child
T:Charles Spurgeon Brown
T:Charles Spurgeon Brown, 1899
T:Public Domain Courtesy of the Cyber Hymnal™
C:Charles Spurgeon Brown
Z:Public Domain
Z:Courtesy of the Cyber Hymnal™
%%score ( 1 2 ) ( 3 4 )
L:1/8
Q:1/4=100
M:4/4
K:G
V:1 treble 
V:2 treble 
V:3 bass 
V:4 bass 
V:1
"^Brightly" BAGF A2 G2 | D^CDG F2 E2 | z EFG A2 [D^A]2 | [DB]4 z4 | BAGF A2 G2 | D^CDG F2 E2 | %6
w: 1.~Pre- cious is the sto- ry|How the King of glo- ry|Came to earth a low-|ly|child; Came a lit- tle strang-|er, Sleep- ing in a man-|
w: 2.~Shep- herds watch were keep- ing,|While their flocks were sleep- ing,|In Ju- de- a far|a-|way, When an an- gel chor-|us Sang a song so glor-|
w: 3.~With a glor- y beam- ing,|And a ra- diance stream- ing,|Shone a lit- tle strang-|er|star; And the wise men dar-|ing, Gold and trea- sures bear-|
 z EFG A2 [DB]2 | [B,G]4 z4 | D3 D [CE]2 [CG]2 | D3 D [CE]2 [CG]2 | B3 D [CE]2 [CG]2 | %11
w: ger, Sim- ple, pure, and|un-|de- filed. Christ our|Sav- ior, bless- èd|Sav- ior, Came to|
w: ious That it e- choes|still|to- day; Sang of|Je- sus, bless- èd|Je- sus, Sang of|
w: ing, Jour- neyed in its|light|a- far; Came to|Je- sus, bless- èd|Je- sus, Came to|
 [CA]3 [B,G] [B,G]4 |] %12
w: earth a low-|
w: Christ, the low-|
w: Christ, the low-|
V:2
 B,8 | B,4 =C4 | D6 x2 | x8 | B,8 | B,4 =C4 | D6 x2 | x8 | B,4 x4 | B,4 x4 | B,4 x4 | x8 |] %12
V:3
 D,2 G,2 D,2 G,2 | G,4 A,2 G,2 | C6 D,2 | [G,,D,]4 z4 | D,2 G,2 D,2 G,2 | G,4 A,2 G,2 | C6 D,2 | %7
 [G,,D,]4 z4 | G,4 [C,G,]2 [E,G,]2 | G,4 [C,G,]2 [E,G,]2 | G,4 [C,G,]2 [E,G,]2 | %11
 [D,F,]3 [G,,G,] [G,,G,]4 |] %12
V:4
 G,,8 | G,,2 D,2 D,4 | F,2 D,2 F,2 D,2 | x8 | G,,8 | G,,2 D,2 D,4 | F,2 D,2 F,2 D,2 | x8 | %8
 G,,2 D,2 x4 | G,,2 D,2 x4 | G,,2 D,2 x4 | x8 |] %12

